X:1
T:Exultate justi in Domino
T:Ludovico Grossi da Viadana (c. 1560 – 2 maggio 1627)
T:Scritto con MuseScore, un software libero e gratuito: http://musescore.org/it
T:Scritto con MuseScore, un software libero e gratuito: http://musescore.org/it
T:Scritto con MuseScore, un software libero e gratuito: http://musescore.org/it
T:Scritto con MuseScore, un software libero e gratuito: http://musescore.org/it
T:Scritto con MuseScore, un software libero e gratuito: http://musescore.org/it
T:Scritto con MuseScore, un software libero e gratuito: http://musescore.org/it
T:Scritto con MuseScore, un software libero e gratuito: http://musescore.org/it
T:Scritto con MuseScore, un software libero e gratuito: http://musescore.org/it
T:Scritto con MuseScore, un software libero e gratuito: http://musescore.org/it
T:Scritto con MuseScore, un software libero e gratuito: http://musescore.org/it
T:Scritto con MuseScore, un software libero e gratuito: http://musescore.org/it
T:Scritto con MuseScore, un software libero e gratuito: http://musescore.org/it
T:Scritto con MuseScore, un software libero e gratuito: http://musescore.org/it
T:Scritto con MuseScore, un software libero e gratuito: http://musescore.org/it
Z:Scritto con MuseScore, un software libero e gratuito: http://musescore.org/it
%%score 1 2 3 4
L:1/8
M:3/4
K:F
V:1 treble nm="Soprano"
V:2 treble nm="Alto"
V:3 treble-8 nm="Tenor"
V:4 bass nm="Bass"
V:1
"^Moderato" F4 F2 | F4 G2 | A2 A2 c2 | B4 B2 | !breath!A2!<(! c2 B2!<)! |!>(! A4 F2!>)! | %6
w: ||||||
!<(! G4 A2!<)! |!>(! G4 G2!>)! ||[M:4/4] !breath!A4!mf!"^mosso" A2 A2 | B2 B B A2 B2 | %10
w: ||||
 c4!f! c2 c2 | d2 d d!>(! c2 G2!>)! | G4!p! A4 | (BA)Bc dcBA | G2 A2 G3 G | A4!f! c2 c2 | %16
w: |||ci * * * * * * \-|* * * tha\-|ra con\- fi\-|
 d2 d d c2 ^B2 | c8 | z2!p! d2 (dcBA | G2) F4 E2 | F2!pp! .c4 .c2 | .B2 .B.B .A2 .A .A | %22
w: te\- mi\- ni Do\- mi\-|no|in ci * * *|* \- tha\-|ra, in psal\-|te\- ri\- o de\- cem chor\-|
 .G2 .G2 .c2 .c2 | .B2 .B .B .A2 .A .A | .G4 .F4 | z4!f! (A4 | A2) G F B2 C2 | z8 | (c8 | %29
w: da\- rum, in psal\-|te\- ri\- o de\- cem chor\-|da\- rum,|psal|\- li\- te Il\- li,||psal|
 c4)"^rall." B2 A2 |!>(! G4 C4!>)! | z2!f!"^mosso\n" c2 c2 c2 | B4 A4 | z6 c2 | c2 c2 B4 | A4 z4 | %36
w: \- li\- te|Il\- li,|can\- ta\- te|E\- i,|can\-|ta\- te E\-|i|
 z6!p! (G2 | G) G G2 (AB)cA | BcdG ABcA | =B2 c4 B2 | c8 | z4 c2 c2 | B2 B B A4 | G2 G2 F2 F2 | %44
w: can|\- ti\- cum no * * *||* * \-|vum.|Be\- ne|psal\- li\- te E\-|i in vo\- ci\-|
 E2 A4 F2 | (E4!>(! D4)!>)! | E4 z4 | z8 | z4 c2 c2 | B2 B B A4 | G4 z4 |!f! A6 A2 | %52
w: fe\- ra\- ti\-|o \-|ne.||Be\- ne|psal\- li\- te E\-|i,|Be\- ne|
!>(! G2 G G F4!>)! | E4 z2!p!"^a tempo" c2 | A2 A A A2 G2 | F4 F2 c2 | A2 A A A2 G2 | FGAB c4 | %58
w: psal\- li\- te E\-|i in|vo\- ci\- fe\- ra\- ti\-|o\- ne, in|vo\- ci\- fe\- ra\- ti\-|o * * * \-|
 c2 c2 c2 cB |"^rall." A4 B4 | G2 F2 F4 | F2 ED E4 | !fermata!F8 ||[M:3/4]!f! F4 F2 | F4 G2 | %65
w: ne, in vo\- ci\- fe\-|ra \-|* ti\- o|* * * \-|ne.|||
 A2 A2 c2 | B4 B2 | A2 c2!<(! B2!<)! |!>(! A4 F2!>)! |!<(! G4 A2!<)! |!>(! G4 G2!>)! | %71
w: ||||||
 !fermata!A6 ||[M:4/4] z4!<(! B4!<)! | A8 |"^rall."!>(! F6 F2!>)! | !fermata!F8 |] %76
w: |||||
V:2
 C4 C2 | D4 E2 | F2 F2 E2 | G4 D2 | !breath!F2!<(! F2 D2!<)! |!>(! F2 E2 D2!>)! |!<(! D4 F2!<)! | %7
w: |||||||
w: E\- xul\-|ta\- te|ju\- sti in|Do\- mi\-|no: rec\- tos|de \- cet|col\- lau\-|
!>(! E4 E2!>)! ||[M:4/4] !breath!F4!mf! F2 F2 | F2 F F F2 F2 | E4!f! F2 F2 | F2 F F!>(! F2 D2!>)! | %12
w: |||||
w: da\- ti\-|o. Con\- fi\-|te\- mi\- ni Do\- mi\-|no, con\- fi\-|te\- mi\- ni Do\- mi\-|
 E4!p! F4 | (DC)DE F2 D2 | E2 F4 E2 | F4!f! F2 F2 | F2 F F F2 F2 | E4 F4 | (DCDE F2 D2 | %19
w: ||||te\- mi\- ni Do\- mi|no in|ci * * * * *|
w: no. In|ci * * * * *|* \- tha\-|ra con\- fi\-||||
 E2 (C2) C3) C | C8 | z4!mp! .C2 .F2 | .D2 .D .D .C2 .F .F | .D2 .D2 .C2 .F2 | %24
w: * * \- tha\-|ra,|in psal\-|te\- ri\- o de\- cem chor\-|da\- rum, in psal\-|
w: |||||
 .D2 .D .D .C2 .C .C | .D4 .F4 | z6 (F2 | F2) E D C4 | C4 z2 (F2 | F2) E D"^rall." (E2 (F2) | %30
w: te\- ri\- o de\- cem chor\-|da\- rum|psal|\- li\- te Il\-|li, psal|\- li\- te Il *|
w: ||||||
!>(! F2) E D E4!>)! | F8 | z2!f! F2 F2 F2 | D4 C4 | z6 F2 |!>(! F2 F2 F4!>)! | F4!mf! (E4 | %37
w: * * * \-|li,|can\- ta\- te|E\- i,|can\-|ta\- te E\-|i can|
w: |||||||
 E4) F4 | D4 (F4 | F2) E2 D4 | E4 E2 E2 | F2 F D E2 C2 | z4 F2 F2 | E2 E E D2 D2 | %44
w: \- ti\-|cum no|* * \-|vum. Be\- ne|psal\- li\- te E\- i,|be\- ne|psal\- li\- te E\- i|
w: |||||||
 C2 C C C2!<(! (D2!<)! | D) C!>(! C4 =B,2!>)! | C4 E2 E2 | F2 F D E2 F2 | G4 z4 | %49
w: in vo\- ci\- fe\- ra|\- ti\- o \-|ne. Be\- ne|psal\- li\- te E \-|i.|
w: |||||
 z4!<(! F2 F2!<)! | E2!>(! E E D4!>)! |!f! C2 F4 F2 |!>(! E2 E E D4!>)! | C4 z4 |"^a tempo" C8 | %55
w: Be\- ne|psal\- li\- te E\-|i. Be\- ne|psal\- li\- te E\-|i|in|
w: ||||||
 C4 C2 E2 | C4 C4 | C4 C4 | z2 A,2 A,2 A, G, |"^rall." F,2 F2 D4 | C2 C2 C2 C C | C2 C2 C4 | %62
w: vo\- ci\- fe\-|ra\- ti\-|o\- ne,|in vo\- ci\- fe\-|ra\- ti\- o\-|ne, in vo\- ci\- fe\-|ra\- ti\- o\-|
w: |||||||
 !fermata!C8 ||[M:3/4]!f! C4 C2 | D4 E2 | F2 F2 E2 | G4 D2 | F2 F2!<(! D2!<)! |!>(! F2 E2 D2!>)! | %69
w: ne.|||||||
w: |E\- xul\-|ta\- te|iu\- sti in|Do\- mi\-|no: rec\- tos|de \- cet|
!<(! D4 F2!<)! |!>(! E4 E2!>)! | !fermata!F6 ||[M:4/4] z4!<(! F4!<)! | F4 E4 | %74
w: |||||
w: col\- lau\-|da\- ti|o|col|\- lau\-|
"^rall."!>(! D6 D2!>)! | !fermata!C8 |] %76
w: ||
w: da\- ti\-|o.|
V:3
 A4 A2 | A4 c2 | c2 c2 c2 | d4 B2 | !breath!c2!<(! A2 B2!<)! |!>(! c4 d2!>)! |!<(! B4 c2!<)! | %7
w: |||||||
!>(! c4 c2!>)! ||[M:4/4] !breath!c4!mf! c2 c2 | d2 d d c2 d2 | G4!f! A2 A2 | %11
w: ||||
 B2 B B!>(! A2 ^B2!>)! | c4!p! F4 | B8 | c8 | F4!f! A2 A2 | B2 B B A2 F2 | G4 A4 | (BABc B2 F2 | %19
w: ||ci|tha\-|ra con\- fi\-|te\- mi\- ni Do\- mi\-|no in|ci\- * * * * *|
 c2 A2) G3 G | F4 z4 | z4!mp! .F2 .F2 | .G2 .G .G .A2 .A .A | .B2 .B2 .F2 .F2 | %24
w: * * * tha\-|ra,|in psal\-|te\- ri\- o de\- cem chor\-|da\- rum, in psal\-|
 .G2 .G .G .A2 .A .A | .B4 .c4 | c6 B A | G2 G2 (A4 | A4) G2 F2 | (G2 A2)"^rall." G2 (c2 | %30
w: te\- ri\- o de\- cem chor\-|da\- rum|psal\- li\- te|Il\- li, psal|\- li\- te|Il \- li, psal|
!>(! c2) B A G4!>)! | A8 | z2!f! d2 c2 c2 | B4 A4 | z6 B2 |!>(! c2 c2 d4!>)! | c4!mf! (c4 | %37
w: \- li\- te Il\-|li,|can\- ta\- te|E\- i,|can\-|ta\- te E\-|i can|
 c2) c2 c4 | z8 | z4 G4 | G4 c2 c2 | B2 B B A4 | G2 G2 (FG)AB | c2 C2 (DE)FG | A4 F2 D2 | %45
w: \- ti\- cum||no\-|vum. Be\- ne|psal\- li\- te E\-|i in vo * * *|\- ci\- fe * * *|\- ra\- ti\-|
!>(! (E3 F) G4!>)! | C8 | z4 c2 c2 | B2 B B A4 | G4 z4 | z8 | z2!f! c4 c2 |!>(! c2 c c A4!>)! | %53
w: o * \-|ne.|Be\- ne|psal\- li\- te E\-|i||Be\- ne|psal\- li\- te E|
 A4 G4 | z6 C2 | F2 F F F2 G2 | A4 F2 C2 | F2 F F F2 G2 | (A3 B) c4 |"^rall." c4 B4 | A4 G2 A2 | %61
w: \- i|in|vo\- ci\- fe\- ra\- ti\-|o\- ne, in|vo\- ci\- fe\- ra\- ti\-|o- * *|ne, in|vo\- ci\- fe\-|
 G2 A2 G4 | !fermata!F8 ||[M:3/4]!f! A4 A2 | A4 c2 | c2 c2 c2 | d4 B2 | c2 A2!<(! B2!<)! | %68
w: ra\- ti\- o\-|ne.||||||
!>(! c4 d2!>)! |!<(! B4 c2!<)! |!>(! c4 c2!>)! | !fermata!A6 ||[M:4/4] z4!<(! d4!<)! | d4 c4 | %74
w: ||||||
"^rall."!>(! B6 B2!>)! | !fermata!A8 |] %76
w: ||
V:4
 F,4 F,2 | D,4 C,2 | F,2 F,2 A,2 | G,4 G,2 | !breath!F,2!<(! F,2 G,2!<)! |!>(! A,4 B,2!>)! | %6
w: ||||||
!<(! G,4 F,2!<)! |!>(! C,4 C,2!>)! ||[M:4/4] !breath!F,,4!mf! F,2 F,2 | B,,2 B,, B,, F,2 D,2 | %10
w: ||||
 C,4!f! F,2 F,2 | B,,2 B,, B,,!>(! F,2 G,2!>)! | C,4 z4 | z8 | z8 | z4!f! F,2 F,2 | %16
w: |||||con\- fi\-|
 B,,2 B,, B,, F,2 D,2 | C,4 F,,4 | B,,8 | C,8 | F,,4!p! F,2 F,2 | .G,2 .G, .G, .A,2 .A, .A, | %22
w: te\- mi\- ni Do\- mi\-|no in|ci\-|tha\-|ra, in psal\-|te\- ri\- o de\- cem chor\-|
 .B,2 .B,2 .F,2 .F,2 | .G,2 .G, .G, .A,2 .A, .A, | .B,4 .F,4 | z4!f! (F,4 | F,2) E, D, C,4 | %27
w: da\- rum, in psal\-|te\- ri\- o de\- cem chor\-|da\- rum|psal|\- li\- te Il\-|
 C,4 (F,4 | F,4) E,2 D,2 | (C,8 |!>(! C,8)!>)! | F,,8 | z2!f! B,,2 F,2 F,2 | B,,4 F,4 | z6 B,,2 | %35
w: li, psal|\- li\- te|Il|\-|li,|can\- ta\- te|E\- i,|can\-|
!>(! F,2 F,2 B,4!>)! | C,4!mf! (C,4 | C,4) F,4 | G,4 (F,4 | G,8) | C,8 | z8 | z8 | z8 | z8 | z8 | %46
w: ta\- te E\-|i can|\- ti\-|cum no|\-|vum.||||||
 z4 C2 C2 | B,2 B, B, A,4 | G,4 z4 | z4 F,2 F,2 |!<(! C2 C C B,4!<)! |!f! F,4!>(! F,2 F,2!>)! | %52
w: Be\- ne|psa\- li\- te E\-|i,|be\- ne\-|psal\- li\- te E\-|i, be\- ne|
!>(! C,2 C, C, D,4!>)! | A,,4"^a tempo"!p! C,4 | F,2 F, F, F,2 G,2 | A,4 F,2 C,2 | %56
w: psal\- li\- te E\-|i in|vo\- ci\- fe\- ra- ti\-|o\- ne, in|
 F,2 F, F, F,2 G,2 | A,4 F,2 C,2 |!>(! A,,2 A,, G,, (F,,4!>)! |"^rall." F,,4) G,,4 | (A,,6 B,,2) | %61
w: vo\- ci\- fe\- ra\- ti\-|o ne, in|vo\- ci\- fe\- ra|\- ti\-|o *|
 C,8 | !fermata!F,,8 ||[M:3/4]!f! F,4 F,2 | D,4 C,2 | F,2 F,2 A,2 | G,4 G,2 | F,2 F,2!<(! G,2!<)! | %68
w: \-|ne.||||||
!>(! A,4 B,2!>)! |!<(! G,4 F,2!<)! |!>(! C,4 C,2!>)! | !fermata!F,,6 ||[M:4/4] z4!<(! B,,4!<)! | %73
w: |||||
 D,4 A,,4 |"^rall."!>(! B,,6 B,,2!>)! | !fermata!F,,8 |] %76
w: |||

